X:1
T:Title
%%score ( 1 2 ) { 3 | 4 }
L:1/8
Q:1/4=115
M:4/4
K:Bb
V:1 treble nm="Grand Piano, Unnamed-000"
V:2 treble 
V:3 bass nm="Choir Pad, Silver Street, SM"
V:4 bass 
V:1
 [DFB]2 FF [B,D]2 [A,F]2 | [DB]6 [Fd]2 | z4 .B2 .F2 | [CF]6 [DF]2 | [DB]2 [Fd]2 [DB]3 [DF] | %5
w: By~Isaac~Smith,~circa~1770 * * * *|||||
 .G2 z2 z4 | [EG][FA][FB][Gc] [Fd]2 [Ec]2 | [DB]8 |] %8
w: |||
V:2
 x8 | x8 | [Fc]2 F2 D-[DG]C-[C=E] | x8 | x8 | E-[EF][EG][FB] [FA]3 F | x8 | x8 |] %8
V:3
 B,2 F,F, F,2 F,2 | B,6 B,2 | C2 A,2 G,B,A,G, | A,6 B,2 | F,2 B,2 F,3 B, | B,2[K:treble] ED C3 B, | %6
 B,[K:bass]C B,2 B,2 A,2 | B,8 |] %8
V:4
 [B,,F,]2 z2 [B,,D,]2 A,,2 | [G,,G,]6 B,,2 | A,,2 D,2 B,,2 C,2 | [F,,F,]6 B,,2 | %4
 B,,2 B,,2 B,,3 B,, | E,D,C,B,, F,3 D, | E,2 D,E, F,2 [F,,F,]2 | B,,8 |] %8

